fs/border_bottom_double_24_filled.svg

<svg viewBox="0 0 24 24" fill="none" xmlns="http://www.w3.org/2000/svg" height="1em" width="1em">
  <path d="M13 5C13.5523 5 14 4.55228 14 4C14 3.44772 13.5523 3 13 3H11C10.4477 3 10 3.44772 10 4C10 4.55228 10.4477 5 11 5L13 5ZM5 11C5 10.4477 4.55228 10 4 10C3.44772 10 3 10.4477 3 11V13C3 13.5523 3.44772 14 4 14C4.55228 14 5 13.5523 5 13V11ZM4 18C3.44772 18 3 17.5523 3 17C3 16.4477 3.44772 16 4 16H20C20.5523 16 21 16.4477 21 17C21 17.5523 20.5523 18 20 18H4ZM4 21C3.44772 21 3 20.5523 3 20C3 19.4477 3.44772 19 4 19H20C20.5523 19 21 19.4477 21 20C21 20.5523 20.5523 21 20 21H4ZM20 10C19.4477 10 19 10.4477 19 11V13C19 13.5523 19.4477 14 20 14C20.5523 14 21 13.5523 21 13V11C21 10.4477 20.5523 10 20 10ZM7 4C7 3.44772 6.55228 3 6 3C4.34315 3 3 4.34315 3 6C3 6.55228 3.44772 7 4 7C4.55228 7 5 6.55228 5 6C5 5.44772 5.44772 5 6 5C6.55228 5 7 4.55228 7 4ZM18 3C17.4477 3 17 3.44772 17 4C17 4.55228 17.4477 5 18 5C18.5523 5 19 5.44772 19 6C19 6.55228 19.4477 7 20 7C20.5523 7 21 6.55228 21 6C21 4.34315 19.6569 3 18 3Z" fill="#212121"/>
</svg>

<svg viewBox="0 0 24 24" fill="none" xmlns="http://www.w3.org/2000/svg" height="1em" width="1em">
  <path d="M13 5a1 1 0 1 0 0-2h-2a1 1 0 1 0 0 2h2Zm-8 6a1 1 0 1 0-2 0v2a1 1 0 1 0 2 0v-2Zm-1 7a1 1 0 1 1 0-2h16a1 1 0 1 1 0 2H4Zm0 3a1 1 0 1 1 0-2h16a1 1 0 1 1 0 2H4Zm16-11a1 1 0 0 0-1 1v2a1 1 0 1 0 2 0v-2a1 1 0 0 0-1-1ZM7 4a1 1 0 0 0-1-1 3 3 0 0 0-3 3 1 1 0 0 0 2 0 1 1 0 0 1 1-1 1 1 0 0 0 1-1Zm11-1a1 1 0 1 0 0 2 1 1 0 0 1 1 1 1 1 0 1 0 2 0 3 3 0 0 0-3-3Z" fill="#212121"/>
</svg>
